X: 1
T: Jack Robinson
M: 2/4
L: 1/8
R: polka
K: Gmaj
|:D2 G2 | FG AB| cB Ac | B2 G2| DF AF | DF Ad| ed ^ce | d3 d|ed ^ce |
d2 B2| cB Ac | B2 G2| D2 G2|  FG Ac|1. B2 G2 | G3 E:|2.B2 G2 | G2 Bc||
|: d2 d2 | B2 d2| e2 A2 | A2 Bc| d2 d2 | B2 d2|ed cB | A2 D2|G2 FG |
A2 B2| cB Ac | B2 G2| D2 G2 | FG Ac |1.B2 G2 | G2 Bc:|2.B2 G2 | G4 ||
